X:613
T: "Nachtwaechterlied"
N: Z1293
O: Europa, Mitteleuropa, Deutschland, Schwaben
R: Handwerker -, Bauern - Lied
M: 3/4
L: 1/8
K: C
C4E2 | G4E2 | c4G2 | A4G2 |
c4G2 | A4G2 | G2F2E2 | E2D2z2 |
G4E2 | A4G2 | G2F2E2 | D4z2 |
c4G2 | A4GF | E4D2 | C4z2

@@@ Tune index: 10371
